public/docs/github.svg

<svg width="100" height="100" viewBox="0 0 100 100" fill="none" xmlns="http://www.w3.org/2000/svg">
<g id="github">
<g id="github_2">
<path id="Vector" d="M50 1.00049C22.3892 1.00049 -0.000244141 23.386 -0.000244141 51.0007C-0.000244141 73.0924 14.3263 91.8345 34.1931 98.4461C36.6918 98.9088 37.6094 97.3614 37.6094 96.0406C37.6094 94.8485 37.5627 90.9095 37.5416 86.7316C23.6311 89.7562 20.6959 80.8322 20.6959 80.8322C18.4215 75.0528 15.1443 73.5163 15.1443 73.5163C10.608 70.4129 15.4863 70.4765 15.4863 70.4765C20.5073 70.8294 23.1511 75.6292 23.1511 75.6292C27.6105 83.2733 34.8479 81.0631 37.7012 79.7859C38.1498 76.5539 39.4458 74.3485 40.8756 73.0999C29.7701 71.8352 18.0952 67.5479 18.0952 48.3894C18.0952 42.9308 20.0485 38.4701 23.2472 34.9687C22.728 33.7091 21.0167 28.6238 23.7315 21.7366C23.7315 21.7366 27.9301 20.3927 37.4851 26.8619C41.4732 25.7537 45.7507 25.1985 50 25.1796C54.2492 25.1985 58.5298 25.7537 62.5258 26.8619C72.0694 20.3927 76.2622 21.7366 76.2622 21.7366C78.9836 28.6238 77.2715 33.7091 76.7523 34.9687C79.9581 38.4701 81.898 42.9304 81.898 48.3894C81.898 67.5934 70.2012 71.8223 59.0675 73.0599C60.8607 74.6116 62.4587 77.6546 62.4587 82.3192C62.4587 89.0091 62.4007 94.3936 62.4007 96.0406C62.4007 97.3712 63.3007 98.9304 65.8355 98.4394C85.6912 91.8204 99.9998 73.085 99.9998 51.0007C99.9998 23.386 77.6135 1.00049 50 1.00049Z" fill="#161614"/>
<path id="Vector_2" d="M18.7264 72.227C18.6166 72.4752 18.2252 72.5498 17.8696 72.3796C17.5068 72.2164 17.3029 71.8776 17.4206 71.6282C17.5284 71.3725 17.9198 71.3012 18.2817 71.4729C18.6452 71.6357 18.8523 71.9776 18.7264 72.227ZM21.1859 74.4215C20.9475 74.6426 20.4812 74.5399 20.1648 74.1905C19.8377 73.8419 19.7766 73.376 20.0185 73.1513C20.2644 72.9305 20.7165 73.0337 21.0444 73.3827C21.3714 73.7352 21.4349 74.1983 21.1855 74.4218L21.1859 74.4215ZM22.8733 77.2292C22.5667 77.4421 22.0655 77.2425 21.7561 76.7978C21.4498 76.3535 21.4498 75.8202 21.7628 75.6065C22.0733 75.3928 22.5667 75.5849 22.8804 76.0261C23.1862 76.4782 23.1862 77.0116 22.8729 77.2296L22.8733 77.2292ZM25.7266 80.4812C25.4524 80.7832 24.8689 80.7024 24.4415 80.2899C24.0047 79.8868 23.8827 79.3146 24.1576 79.0123C24.4348 78.7095 25.0219 78.7946 25.4524 79.2036C25.8865 79.606 26.0191 80.1824 25.7269 80.4812H25.7266ZM29.4143 81.5792C29.2939 81.9706 28.7316 82.1486 28.1653 81.9824C27.5998 81.811 27.2296 81.3522 27.3438 80.9565C27.4614 80.5624 28.0261 80.3769 28.5967 80.555C29.1613 80.7255 29.5323 81.1808 29.4147 81.5792H29.4143ZM33.6118 82.0447C33.6259 82.4573 33.1455 82.7992 32.551 82.8067C31.953 82.8196 31.4695 82.4859 31.4632 82.0804C31.4632 81.6639 31.9326 81.3251 32.5302 81.3153C33.1247 81.3036 33.6118 81.6349 33.6118 82.0447ZM37.7348 81.8867C37.8061 82.289 37.3928 82.7023 36.8027 82.8121C36.2223 82.918 35.685 82.6698 35.6109 82.271C35.5388 81.8584 35.9599 81.4455 36.5391 81.3385C37.1305 81.2357 37.6595 81.4777 37.7348 81.8867Z" fill="#161614"/>
</g>
</g>
</svg>

<svg width="50" height="50" xmlns="http://www.w3.org/2000/svg" fill="none" viewBox="0 0 100 100"><path fill="#fff" d="M50 1C22.39 1 0 23.386 0 51c0 22.092 14.326 40.834 34.193 47.446 2.499.462 3.416-1.085 3.416-2.406 0-1.192-.046-5.131-.067-9.309-13.91 3.025-16.846-5.9-16.846-5.9-2.274-5.779-5.552-7.315-5.552-7.315-4.536-3.104.342-3.04.342-3.04 5.021.353 7.665 5.153 7.665 5.153 4.46 7.644 11.697 5.434 14.55 4.156.449-3.232 1.745-5.437 3.175-6.686-11.106-1.264-22.78-5.552-22.78-24.71 0-5.459 1.953-9.92 5.151-13.42-.519-1.26-2.23-6.346.485-13.233 0 0 4.198-1.344 13.753 5.125 3.988-1.108 8.266-1.663 12.515-1.682 4.25.019 8.53.574 12.526 1.682 9.543-6.469 13.736-5.125 13.736-5.125 2.722 6.887 1.01 11.973.49 13.232 3.206 3.502 5.146 7.962 5.146 13.42 0 19.205-11.697 23.434-22.83 24.671 1.793 1.552 3.39 4.595 3.39 9.26 0 6.69-.057 12.074-.057 13.721 0 1.33.9 2.89 3.434 2.399C85.691 91.819 100 73.085 100 51c0-27.614-22.386-50-50-50"/><path fill="#fff" d="M18.727 72.227c-.11.248-.502.322-.857.152-.363-.163-.567-.502-.45-.751.108-.256.5-.327.862-.156.363.163.57.505.445.755m2.459 2.194c-.238.221-.705.118-1.021-.231-.327-.349-.388-.814-.146-1.04.245-.22.698-.117 1.025.232.328.353.391.816.142 1.04zm1.687 2.808c-.306.213-.807.013-1.117-.432-.306-.444-.306-.977.007-1.191.31-.214.804-.021 1.117.42.306.452.306.985-.007 1.203m2.854 3.252c-.274.302-.858.22-1.285-.192-.437-.403-.56-.975-.284-1.277.277-.303.864-.218 1.294.191.435.403.567.979.275 1.278m3.687 1.098c-.12.391-.682.57-1.249.403-.565-.171-.935-.63-.821-1.026.117-.394.682-.58 1.253-.401.564.17.935.625.818 1.024m4.198.465c.014.413-.466.755-1.06.762-.599.013-1.082-.32-1.089-.726 0-.416.47-.755 1.067-.765.595-.012 1.082.32 1.082.73m4.123-.158c.071.403-.342.816-.932.926-.58.106-1.118-.143-1.192-.541-.072-.413.349-.826.928-.933.591-.103 1.12.14 1.196.548"/></svg>
